images/linkedin.svg

<svg width="44" height="44" fill="none" xmlns="http://www.w3.org/2000/svg"><g clip-path="url(#clip0)" fill="#AFB1B8"><path d="M31.9951 32.0001v-.0008h.005v-7.335c0-3.5884-.7725-6.3525-4.9675-6.3525-2.0167 0-3.37 1.1066-3.9225 2.1558h-.0584v-1.8208h-3.9775v13.3525h4.1417v-6.6117c0-1.7408.33-3.4242 2.4858-3.4242 2.1242 0 2.1559 1.9867 2.1559 3.5359v6.5008h4.1375zM12.3301 18.6475h4.1466V32h-4.1466V18.6475zM14.4017 12C13.0758 12 12 13.0758 12 14.4017c0 1.3258 1.0758 2.4241 2.4017 2.4241 1.3258 0 2.4016-1.0983 2.4016-2.4241C16.8025 13.0758 15.7267 12 14.4017 12z"/></g><defs><clipPath id="clip0"><path fill="#fff" d="M12 12h20v20H12z"/></clipPath></defs></svg>

<svg width="44" height="44" viewBox="0 0 44 44" fill="none" xmlns="http://www.w3.org/2000/svg">
<g clip-path="url(#clip0)">
<path d="M31.9951 32.0001V31.9993H32.0001V24.6643C32.0001 21.0759 31.2276 18.3118 27.0326 18.3118C25.0159 18.3118 23.6626 19.4184 23.1101 20.4676H23.0517V18.6468H19.0742V31.9993H23.2159V25.3876C23.2159 23.6468 23.5459 21.9634 25.7017 21.9634C27.8259 21.9634 27.8576 23.9501 27.8576 25.4993V32.0001H31.9951Z" fill="#AFB1B8"/>
<path d="M12.3301 18.6475H16.4767V32H12.3301V18.6475Z" fill="#AFB1B8"/>
<path d="M14.4017 12C13.0758 12 12 13.0758 12 14.4017C12 15.7275 13.0758 16.8258 14.4017 16.8258C15.7275 16.8258 16.8033 15.7275 16.8033 14.4017C16.8025 13.0758 15.7267 12 14.4017 12V12Z" fill="#AFB1B8"/>
</g>
<defs>
<clipPath id="clip0">
<rect x="12" y="12" width="20" height="20" fill="white"/>
</clipPath>
</defs>
</svg>
